packages/assets/static/images/icons/doc-xlsx.svg

<svg width="24" height="24" viewBox="0 0 24 24" xmlns="http://www.w3.org/2000/svg">
<path d="M14.625 19.5C14.625 19.6989 14.546 19.8897 14.4053 20.0303C14.2647 20.171 14.0739 20.25 13.875 20.25H11.25C11.0511 20.25 10.8603 20.171 10.7197 20.0303C10.579 19.8897 10.5 19.6989 10.5 19.5V14.25C10.5 14.0511 10.579 13.8603 10.7197 13.7197C10.8603 13.579 11.0511 13.5 11.25 13.5C11.4489 13.5 11.6397 13.579 11.7803 13.7197C11.921 13.8603 12 14.0511 12 14.25V18.75H13.875C14.0739 18.75 14.2647 18.829 14.4053 18.9697C14.546 19.1103 14.625 19.3011 14.625 19.5ZM8.68592 13.6397C8.60578 13.5824 8.51514 13.5415 8.41918 13.5193C8.32323 13.4971 8.22384 13.494 8.12668 13.5102C8.02953 13.5264 7.93651 13.5615 7.85295 13.6137C7.76939 13.6658 7.69692 13.7339 7.63967 13.8141L6.37498 15.585L5.1103 13.8141C5.05509 13.7291 4.98324 13.6562 4.89909 13.5998C4.81495 13.5434 4.72024 13.5046 4.62069 13.4858C4.52114 13.467 4.41882 13.4686 4.31988 13.4904C4.22095 13.5122 4.12747 13.5538 4.04507 13.6128C3.96268 13.6717 3.89308 13.7468 3.84047 13.8333C3.78787 13.9199 3.75335 14.0163 3.739 14.1166C3.72466 14.2168 3.73078 14.319 3.75699 14.4169C3.78321 14.5147 3.82898 14.6063 3.89155 14.6859L5.45342 16.875L3.88967 19.0641C3.78443 19.226 3.74571 19.4223 3.78156 19.612C3.81742 19.8018 3.92509 19.9704 4.08215 20.0828C4.23922 20.1951 4.43357 20.2426 4.62474 20.2152C4.81591 20.1879 4.98916 20.0878 5.10842 19.9359L6.37498 18.165L7.63967 19.9359C7.75893 20.0878 7.93219 20.1879 8.12336 20.2152C8.31453 20.2426 8.50888 20.1951 8.66594 20.0828C8.82301 19.9704 8.93068 19.8018 8.96653 19.612C9.00239 19.4223 8.96366 19.226 8.85842 19.0641L7.29655 16.875L8.8603 14.6859C8.91755 14.6058 8.95845 14.5152 8.98067 14.4192C9.00289 14.3232 9.00599 14.2239 8.9898 14.1267C8.97361 14.0295 8.93844 13.9365 8.8863 13.853C8.83416 13.7694 8.76607 13.6969 8.68592 13.6397ZM17.9615 16.0603C17.5865 15.9516 17.1984 15.84 16.9819 15.7003C16.8647 15.6234 16.8665 15.6066 16.8769 15.5222C16.8783 15.454 16.896 15.3872 16.9287 15.3273C16.9613 15.2674 17.0078 15.2163 17.0644 15.1781C17.4956 14.8856 18.5025 15.0169 18.9225 15.1256C19.1149 15.1762 19.3196 15.1483 19.4915 15.048C19.6633 14.9477 19.7883 14.7832 19.8389 14.5908C19.8895 14.3983 19.8616 14.1937 19.7613 14.0218C19.661 13.8499 19.4965 13.725 19.304 13.6744C19.1062 13.6228 17.3353 13.185 16.2262 13.9331C15.9924 14.0911 15.796 14.2986 15.6511 14.5407C15.5061 14.7829 15.416 15.0539 15.3872 15.3347C15.1997 16.8234 16.6669 17.2481 17.5434 17.5012C18.674 17.8284 18.7734 17.9625 18.7415 18.2128C18.7125 18.4388 18.6234 18.525 18.54 18.5812C18.1087 18.8681 17.1187 18.7266 16.7081 18.6141C16.516 18.5607 16.3106 18.5859 16.1371 18.684C16.0512 18.7326 15.9757 18.7976 15.9149 18.8753C15.8541 18.9531 15.8092 19.0421 15.7828 19.1372C15.7564 19.2323 15.749 19.3317 15.761 19.4296C15.773 19.5276 15.8041 19.6223 15.8527 19.7082C15.9508 19.8817 16.1138 20.0092 16.3059 20.0625C16.7708 20.185 17.2493 20.248 17.73 20.25C18.2756 20.25 18.8831 20.1562 19.3697 19.8319C19.6097 19.6722 19.8114 19.4614 19.9602 19.2145C20.109 18.9676 20.2012 18.6909 20.2303 18.4041C20.4375 16.7812 18.8887 16.3284 17.9615 16.0603ZM3.74998 10.5V3.75C3.74998 3.35218 3.90802 2.97064 4.18932 2.68934C4.47063 2.40804 4.85216 2.25 5.24998 2.25H14.25C14.3485 2.24992 14.4461 2.26926 14.5371 2.3069C14.6282 2.34454 14.7109 2.39975 14.7806 2.46938L20.0306 7.71938C20.1002 7.78908 20.1554 7.87182 20.1931 7.96286C20.2307 8.05391 20.2501 8.15148 20.25 8.25V10.5C20.25 10.6989 20.171 10.8897 20.0303 11.0303C19.8897 11.171 19.6989 11.25 19.5 11.25C19.3011 11.25 19.1103 11.171 18.9697 11.0303C18.829 10.8897 18.75 10.6989 18.75 10.5V9H14.25C14.0511 9 13.8603 8.92098 13.7197 8.78033C13.579 8.63968 13.5 8.44891 13.5 8.25V3.75H5.24998V10.5C5.24998 10.6989 5.17097 10.8897 5.03031 11.0303C4.88966 11.171 4.6989 11.25 4.49998 11.25C4.30107 11.25 4.11031 11.171 3.96965 11.0303C3.829 10.8897 3.74998 10.6989 3.74998 10.5ZM15 7.5H17.6887L15 4.81031V7.5Z"/>
</svg>

<svg viewBox="0 0 24 24" xmlns="http://www.w3.org/2000/svg" aria-hidden="true" fill="currentColor"><path d="M14.625 19.5a.75.75 0 0 1-.75.75H11.25a.75.75 0 0 1-.75-.75v-5.25a.75.75 0 1 1 1.5 0v4.5h1.875a.75.75 0 0 1 .75.75m-5.94-5.86a.75.75 0 0 0-1.045.174l-1.265 1.771-1.265-1.77a.75.75 0 1 0-1.218.87l1.561 2.19-1.563 2.19a.75.75 0 0 0 1.218.87l1.267-1.77 1.265 1.77a.75.75 0 0 0 1.218-.87l-1.561-2.19 1.563-2.19a.75.75 0 0 0-.174-1.045m9.277 2.42c-.375-.108-.764-.22-.98-.36-.117-.077-.116-.093-.105-.178a.43.43 0 0 1 .187-.344c.432-.292 1.439-.161 1.858-.052a.75.75 0 1 0 .382-1.452c-.198-.051-1.969-.489-3.078.26a1.93 1.93 0 0 0-.839 1.4c-.187 1.49 1.28 1.914 2.156 2.167 1.131.327 1.23.461 1.198.712-.029.226-.118.312-.201.368-.431.287-1.421.146-1.832.033a.751.751 0 1 0-.402 1.448c.465.123.943.186 1.424.188.546 0 1.153-.094 1.64-.418a1.95 1.95 0 0 0 .86-1.428c.207-1.623-1.341-2.076-2.268-2.344M3.75 10.5V3.75a1.5 1.5 0 0 1 1.5-1.5h9a.75.75 0 0 1 .53.22l5.25 5.25a.75.75 0 0 1 .22.53v2.25a.75.75 0 1 1-1.5 0V9h-4.5a.75.75 0 0 1-.75-.75v-4.5H5.25v6.75a.75.75 0 1 1-1.5 0M15 7.5h2.689L15 4.81z"/></svg>
